X: 4406
M: 3/4
L: 1/8
K: D
|:!f!\
(a6 | A2)fed2 | (a6 | A2)fed2 |\
e2EAG2 | e2EAG2 | e2EAG2 |[1 e2EAG2 :|[2 F2z2z2 || [K:=c]
[K:G]\
|:!p!\
d2z2z2 | ^c2z2z2 | d2z2z2 | A2z2z2 |\
(d4c2) | (B4A2) | (G4F2) | (E4D2) |\
e2z2z2 | ^d2z2z2 | e2z2z2 | g6 |\
[1 f6 | (e4d2) | (^c4B2) | (A4G2) |\
   F6 | E6 | D6- | D2z2z2 :|\
[2 !f!b6 | (a4g2) |(f4e2) | (d4^c2) |\
   e6 | d6 | G6- | G2z2"_D.C."z2 |]


